X:1
T:Title
%%score { 1 | 2 }
L:1/8
M:3/2
K:F
V:1 treble nm="Grand Piano"
V:2 bass 
V:1
 z4 z4[Q:1/4=112] F4 | A2 B2 c4 A4 | [CF]2 [CEG]2 [CFA]4 [CFA]4 | [CEG]2 [CGc]2 c4 =B4 | %4
[M:4/4] [Ec]8 |[M:2/4] [Ec]4 |[M:6/4] A2 G2 F2- F2 A4 | [Ac]2 [GB]2 A2- A2 d4 | %8
 c2 A2 [DFG]2- [DFG]2 [B,EG]4 |[M:4/4] [A,F]8 |] %10
V:2
 z4 z4 [F,A,]4 | [F,CF]2 [F,CE]2[K:treble] [A,CF]4 [F,CF]4 | A,,2 C,2 F,4 F,4 | %3
 C,2 E,2[K:treble] [F,A,F]4 [G,F]4 |[M:4/4][K:bass] [C,G,]8 |[M:2/4] [C,G,]4 | %6
[M:6/4] [F,A,C]2 [G,B,E]2 [A,C]2- [A,C]2 [F,CF]4 | %7
 [C,C]2 [C,C]2[K:treble] [F,CF]2- [F,CF]2 [B,F]4 | [A,CF]2[K:bass] [F,CF]2 B,,2- B,,2 C,4 | %9
[M:4/4] F,8 |] %10

